src/icons/0112_knurling_a.svg

<svg xmlns="http://www.w3.org/2000/svg" viewBox="0 0 48 48"><path d="M15.4 18.5c3.1 0 5.5 2.5 5.6 5.5 0 3.1-2.5 5.5-5.5 5.6-3.1 0-5.5-2.5-5.6-5.5 0-3.1 2.4-5.6 5.5-5.6zm0-18.5c3.1 0 5.5 2.5 5.6 5.5 0 3.1-2.5 5.5-5.5 5.6-3.1 0-5.5-2.5-5.6-5.5 0-3.1 2.4-5.6 5.5-5.6zm0 36.9c3.1 0 5.5 2.5 5.6 5.5 0 3.1-2.5 5.5-5.5 5.6-3.1 0-5.5-2.5-5.6-5.5-.1-3.1 2.4-5.6 5.5-5.6zm17.2-18.4c3.1 0 5.5 2.5 5.5 5.5s-2.5 5.5-5.5 5.5-5.5-2.5-5.5-5.5 2.4-5.5 5.5-5.5zm0-18.5c3.1 0 5.5 2.5 5.5 5.5S35.6 11 32.6 11s-5.5-2.5-5.5-5.5S29.5 0 32.6 0zm0 36.9c3.1 0 5.5 2.5 5.5 5.5S35.7 48 32.6 48s-5.5-2.5-5.5-5.5c0-3.1 2.4-5.6 5.5-5.6z"/></svg>

<?xml version="1.0" encoding="utf-8"?>
<!-- Generator: Adobe Illustrator 20.1.0, SVG Export Plug-In . SVG Version: 6.00 Build 0)  -->
<svg version="1.1" id="Layer_1" xmlns="http://www.w3.org/2000/svg" xmlns:xlink="http://www.w3.org/1999/xlink" x="0px" y="0px"
	 viewBox="0 0 48 48" enable-background="new 0 0 48 48" xml:space="preserve">
<title>0112_knurling_a</title>
<path d="M15.4,18.5c3.1,0,5.5,2.5,5.6,5.5c0,3.1-2.5,5.5-5.5,5.6c-3.1,0-5.5-2.5-5.6-5.5c0,0,0,0,0,0C9.9,21,12.3,18.5,15.4,18.5
	C15.4,18.5,15.4,18.5,15.4,18.5z M15.4,0c3.1,0,5.5,2.5,5.6,5.5c0,3.1-2.5,5.5-5.5,5.6c-3.1,0-5.5-2.5-5.6-5.5c0,0,0,0,0,0
	C9.9,2.5,12.3,0,15.4,0C15.4,0,15.4,0,15.4,0z M15.4,36.9c3.1,0,5.5,2.5,5.6,5.5c0,3.1-2.5,5.5-5.5,5.6c-3.1,0-5.5-2.5-5.6-5.5
	c0,0,0,0,0,0C9.8,39.4,12.3,36.9,15.4,36.9C15.4,36.9,15.4,36.9,15.4,36.9z M32.6,18.5c3.1,0,5.5,2.5,5.5,5.5s-2.5,5.5-5.5,5.5
	s-5.5-2.5-5.5-5.5l0,0C27.1,21,29.5,18.5,32.6,18.5C32.6,18.5,32.6,18.5,32.6,18.5z M32.6,0c3.1,0,5.5,2.5,5.5,5.5s-2.5,5.5-5.5,5.5
	s-5.5-2.5-5.5-5.5l0,0C27.1,2.5,29.5,0,32.6,0C32.6,0,32.6,0,32.6,0z M32.6,36.9c3.1,0,5.5,2.5,5.5,5.5S35.7,48,32.6,48
	s-5.5-2.5-5.5-5.5c0,0,0,0,0,0C27.1,39.4,29.5,36.9,32.6,36.9C32.6,36.9,32.6,36.9,32.6,36.9z"/>
</svg>
